src/assets/image/block12/ip-electron 1.svg

<svg width="151" height="22" viewBox="0 0 151 22" fill="none" xmlns="http://www.w3.org/2000/svg">
<path d="M10.0052 0H8.11773L7.74023 1.81739H9.53337L10.0052 0Z" fill="#FBBC43"/>
<path d="M11.4211 1.81738L10.9492 3.73043H12.8367L13.2142 1.81738H11.4211Z" fill="#FBBC43"/>
<path d="M21.1434 0H13.6867L13.2147 1.81767H15.1025L14.6305 3.731H12.8371L12.3652 5.64434H19.7275L21.1434 0Z" fill="#006EB7"/>
<path d="M7.26694 3.73047H5.37944L5.00195 5.64351H6.79507L7.26694 3.73047Z" fill="#FBBC43"/>
<path d="M8.68359 5.64351H10.4767L10.9486 3.73047H9.15547L8.68359 5.64351Z" fill="#006EB7"/>
<path d="M4.05781 9.375L3.58594 11.1924H5.47344L5.94531 9.375H4.05781Z" fill="#006EB7"/>
<path d="M19.2559 7.46191H11.8936L11.4216 9.37524H9.62818L9.15625 11.1929H11.044L10.5721 13.1063H12.3654L10.5721 20.5683H16.1411L19.2559 7.46191Z" fill="#006EB7"/>
<path d="M1.32031 13.1064H3.20781L3.58531 11.1934H1.79219L1.32031 13.1064Z" fill="#FBBC43"/>
<path d="M5.47578 11.1934L5.00391 13.1064H6.89141L7.26891 11.1934H5.47578Z" fill="#FBBC43"/>
<path d="M6.88984 13.1064L6.41797 15.0195H8.30547H10.0986L10.5704 13.1064H8.68296H6.88984Z" fill="#006EB7"/>
<path d="M4.15234 16.8369H5.94548L6.41735 15.0195H4.52985L4.15234 16.8369Z" fill="#006EB7"/>
<path d="M0 18.75H1.79312L2.26499 16.8369H0.377494L0 18.75Z" fill="#006EB7"/>
<path d="M7.36328 18.75H9.25078L9.62823 16.8369H7.83516L7.36328 18.75Z" fill="#FBBC43"/>
<path d="M5.09766 20.5683H6.89079L7.36267 18.751H5.47517L5.09766 20.5683Z" fill="#006EB7"/>
<path d="M37.6616 0H22.9369L21.6154 5.64434H33.6029C33.9804 5.64434 34.358 5.93134 34.358 6.40967C34.358 6.50534 34.358 6.50534 34.358 6.601L34.2636 6.88801C34.1693 7.27067 33.7917 7.55767 33.4141 7.55767H21.2379L18.123 20.664H25.4854L27.2788 13.202H34.5468C36.7178 13.202 38.6055 11.6714 39.1719 9.56665L40.5877 3.731C40.9653 2.20033 40.0214 0.574005 38.4167 0.191338C38.1336 4.37576e-06 37.9448 0 37.6616 0Z" fill="#006EB7"/>
<path d="M89.8589 12.1499H92.8793L93.54 9.47123H90.5196L91.4634 5.74023H88.3486L85.5169 17.4116C85.4225 17.89 85.3281 18.3682 85.3281 18.8466C85.3281 19.6119 85.5169 19.9946 85.9888 20.2815C86.4608 20.4729 87.2159 20.6643 88.443 20.6643H90.9915L91.6522 17.9856H90.3308C89.9533 17.9856 89.5757 17.9856 89.1981 17.89C89.0093 17.7942 88.9149 17.6029 88.9149 17.3159C88.9149 17.0289 89.0093 16.7419 89.1037 16.4549L89.8589 12.1499Z" fill="#006EB7"/>
<path d="M76.8315 9.56639C76.3596 9.66205 75.982 9.7577 75.6044 10.0447C75.2269 10.3317 74.9437 10.6187 74.755 11.0014C74.4718 11.4797 74.283 12.0537 74.1886 12.6277L73.0559 17.5067C72.9616 17.985 72.8672 18.4634 72.8672 18.9417C72.8672 19.2287 72.8672 19.5157 72.9616 19.8027C73.0559 19.994 73.2448 20.1854 73.4335 20.2811C73.7167 20.4724 74.0942 20.568 74.3774 20.568C74.8493 20.6637 75.4157 20.6637 75.8877 20.6637H82.4005L83.0612 17.985H77.6811C77.3035 17.985 76.9259 17.985 76.5484 17.8894C76.3595 17.7937 76.2652 17.6024 76.2652 17.3154C76.2652 17.0284 76.3596 16.7414 76.454 16.4544L77.1147 13.7757C77.2091 13.4887 77.3035 13.2018 77.3978 13.0104C77.4922 12.6277 77.8698 12.3407 78.2474 12.245C78.5305 12.245 78.9081 12.1494 79.1913 12.1494H84.5715L85.2322 9.4707H78.5305C77.9642 9.4707 77.3035 9.4707 76.8315 9.56639Z" fill="#006EB7"/>
<path d="M52.0075 9.75763C51.5356 9.56632 50.7805 9.375 49.5534 9.375H45.1171C43.7957 9.375 42.8518 9.66198 42.1911 10.1403C41.5303 10.6187 41.0584 11.4797 40.7752 12.532L39.6425 17.3153C39.5481 17.6023 39.5481 17.8893 39.4538 18.0807C39.4538 18.272 39.3594 18.4633 39.3594 18.6547C39.3594 18.9417 39.3594 19.2286 39.5481 19.5157C39.6425 19.707 39.8313 19.8984 40.0201 19.994C40.3032 20.1853 40.6808 20.281 40.964 20.281C41.4359 20.3766 42.0023 20.3766 42.4742 20.3766H50.0254L50.6861 17.698H44.2676C43.89 17.698 43.5125 17.698 43.0406 17.6023C42.8518 17.5067 42.7574 17.2196 42.7574 17.0283C42.7574 16.7414 42.8518 16.4543 42.8518 16.263L43.5125 13.5844C43.6069 13.2973 43.7013 13.0104 43.7957 12.819C43.89 12.6277 43.9844 12.4364 44.1733 12.3407C44.362 12.245 44.5508 12.1493 44.7396 12.1493C45.0227 12.1493 45.3059 12.0537 45.5891 12.0537H48.0432C48.7983 12.0537 49.2703 12.3407 49.2703 12.819C49.2703 12.9146 49.1759 13.106 49.0815 13.5844H44.834L44.1733 16.263H51.4412L52.3851 12.532C52.4795 12.0537 52.5739 11.5753 52.5739 11.097C52.7627 10.523 52.4795 10.0447 52.0075 9.75763Z" fill="#006EB7"/>
<path d="M54.5584 5.74023L54.0864 7.65356H55.9742L52.8594 20.5686H56.0687L59.561 5.74023H54.5584Z" fill="#006EB7"/>
<path d="M71.5467 9.75763C71.0747 9.56632 70.3196 9.375 69.0925 9.375H64.6563C63.3348 9.375 62.3909 9.66198 61.7302 10.1403C61.0694 10.6187 60.5975 11.4797 60.3143 12.532L59.1817 17.3153C59.0873 17.6023 59.0873 17.8893 58.9929 18.0807C58.9929 18.272 58.8984 18.4633 58.8984 18.6547C58.8984 18.9417 58.8984 19.2286 59.0873 19.5157C59.1817 19.707 59.3704 19.8984 59.5592 19.994C59.8424 20.1853 60.22 20.281 60.5031 20.281C60.9751 20.3766 61.5414 20.3766 62.0134 20.3766H69.5645L70.2252 17.698H63.8067C63.4292 17.698 63.0516 17.698 62.6741 17.6023C62.4853 17.5067 62.3909 17.2196 62.3909 17.0283C62.3909 16.7414 62.4853 16.4543 62.4853 16.263L63.146 13.5844C63.2403 13.2973 63.3348 13.0104 63.4292 12.819C63.5236 12.6277 63.6179 12.4364 63.8067 12.3407C63.9955 12.245 64.1843 12.1493 64.373 12.1493C64.6563 12.1493 64.9394 12.0537 65.2226 12.0537H67.6767C68.4318 12.0537 68.9038 12.3407 68.9038 12.819C68.9038 12.9146 68.8094 13.106 68.7149 13.5844H64.4675L63.8067 16.263H71.0747L72.0186 12.532C72.113 12.0537 72.2074 11.5753 72.2074 11.097C72.2074 10.523 72.0186 10.0447 71.5467 9.75763Z" fill="#006EB7"/>
<path d="M101.186 9.4707C100.242 9.4707 99.2981 10.0447 98.8263 10.9057L99.1094 9.4707H95.9941L93.3516 20.568H96.4669L98.0713 13.68C98.1656 13.3931 98.26 13.106 98.3544 12.9147C98.4488 12.7234 98.5431 12.532 98.7319 12.4363C98.9206 12.3407 99.1094 12.245 99.2981 12.245C99.5813 12.245 99.9588 12.1494 100.242 12.1494H103.923L104.584 9.4707H101.186Z" fill="#006EB7"/>
<path d="M117.891 10.3317C117.797 10.1404 117.608 9.949 117.42 9.85335C117.136 9.66205 116.759 9.56639 116.476 9.56639C116.004 9.4707 115.438 9.4707 114.965 9.4707H110.152C109.585 9.4707 108.925 9.4707 108.358 9.56639C107.508 9.66205 106.753 10.1404 106.376 11.0014C106.093 11.4797 105.904 12.0537 105.81 12.6277L104.677 17.5067C104.583 17.985 104.488 18.4634 104.488 18.9417C104.488 19.7071 104.677 20.0897 105.149 20.3767C105.621 20.568 106.376 20.7594 107.603 20.7594H112.417C112.983 20.7594 113.644 20.7594 114.21 20.6637C114.682 20.568 115.06 20.4724 115.438 20.1854C115.815 19.8984 116.004 19.6114 116.193 19.2287C116.476 18.7503 116.57 18.1763 116.759 17.6024L117.891 12.7234C117.986 12.245 118.08 11.7667 118.08 11.2883C117.986 10.9057 117.986 10.6187 117.891 10.3317ZM114.399 13.68L113.738 16.3587C113.644 16.6457 113.644 16.9327 113.455 17.1241C113.36 17.3154 113.266 17.5067 113.077 17.6024C112.889 17.6981 112.7 17.7937 112.511 17.7937C112.228 17.7937 111.85 17.8894 111.567 17.8894H109.114C108.735 17.8894 108.358 17.8894 107.886 17.7937C107.697 17.6981 107.603 17.5067 107.603 17.2197C107.603 16.9327 107.697 16.6457 107.791 16.3587L108.452 13.68C108.546 13.3931 108.641 13.106 108.735 12.819C108.83 12.6277 108.925 12.4363 109.114 12.3407C109.302 12.245 109.491 12.1494 109.68 12.1494C109.963 12.1494 110.246 12.1494 110.529 12.1494H112.983C113.36 12.1494 113.738 12.1494 114.115 12.245C114.304 12.3407 114.399 12.532 114.399 12.819C114.493 13.106 114.399 13.3931 114.399 13.68Z" fill="#006EB7"/>
<path d="M131.484 9.75763C131.013 9.56632 130.258 9.375 129.031 9.375H125.727C124.783 9.375 123.839 9.94903 123.367 10.81L123.65 9.375H120.535L117.893 20.4723H121.008L122.612 13.5844C122.707 13.2973 122.801 13.0104 122.895 12.819C122.99 12.6277 123.084 12.4364 123.273 12.3407C123.462 12.245 123.65 12.1493 123.839 12.1493C124.122 12.1493 124.5 12.0537 124.783 12.0537H127.238C127.615 12.0537 127.993 12.0537 128.37 12.1493C128.559 12.245 128.653 12.4364 128.653 12.7233C128.653 13.0104 128.559 13.2973 128.464 13.5844L126.86 20.4723H129.974L131.862 12.532C131.956 12.0537 132.051 11.5753 132.051 11.097C132.239 10.523 131.956 10.0447 131.484 9.75763Z" fill="#006EB7"/>
<path d="M148.756 8.13184C148.001 8.13184 147.246 8.51451 146.869 9.18418H135.07L134.504 11.3845H146.775C147.341 12.5325 148.756 12.9151 149.795 12.3412C150.927 11.7672 151.305 10.3321 150.738 9.27984C150.361 8.61017 149.606 8.13184 148.756 8.13184ZM148.756 11.4802C148.19 11.4802 147.718 11.0018 147.718 10.4278C147.718 9.85388 148.19 9.37551 148.756 9.37551C149.323 9.37551 149.795 9.85388 149.795 10.4278C149.7 11.0018 149.323 11.4802 148.756 11.4802Z" fill="#FBBC43"/>
<path d="M144.699 12.6279C143.849 12.6279 143.189 13.1063 142.717 13.7759H133.845L133.277 15.9763H142.622C143.189 17.1243 144.604 17.507 145.642 16.9329C146.776 16.3589 147.153 14.924 146.587 13.8716C146.304 13.1063 145.548 12.6279 144.699 12.6279ZM144.699 15.9763C144.132 15.9763 143.66 15.498 143.66 14.924C143.66 14.35 144.132 13.8716 144.699 13.8716C145.265 13.8716 145.737 14.35 145.737 14.924C145.737 15.498 145.265 15.9763 144.699 15.9763Z" fill="#FBBC43"/>
<path d="M140.451 17.124C139.601 17.124 138.845 17.6024 138.468 18.272H132.805L132.238 20.4723H138.468C139.129 21.5247 140.451 22.003 141.583 21.3333C142.716 20.6636 143.093 19.3243 142.433 18.1763C142.055 17.6024 141.3 17.124 140.451 17.124ZM140.451 20.4723C139.885 20.4723 139.412 19.994 139.412 19.42C139.412 18.846 139.885 18.3677 140.451 18.3677C141.017 18.3677 141.489 18.846 141.489 19.42C141.489 19.994 141.017 20.4723 140.451 20.4723Z" fill="#FBBC43"/>
</svg>

<svg width="151" height="22" fill="none" xmlns="http://www.w3.org/2000/svg"><path d="M10.005 0H8.118L7.74 1.817h1.793L10.005 0ZM11.421 1.817 10.95 3.73h1.888l.377-1.913h-1.793Z" fill="#FBBC43"/><path d="M21.143 0h-7.456l-.472 1.818h1.887L14.63 3.73h-1.793l-.472 1.913h7.362L21.143 0Z" fill="#006EB7"/><path d="M7.267 3.73H5.379l-.377 1.914h1.793l.472-1.914Z" fill="#FBBC43"/><path d="M8.684 5.644h1.793l.472-1.914H9.155l-.471 1.914ZM4.058 9.375l-.472 1.817h1.887l.472-1.817H4.058ZM19.256 7.462h-7.362l-.472 1.913H9.628l-.472 1.818h1.888l-.472 1.913h1.793l-1.793 7.462h5.57l3.114-13.106Z" fill="#006EB7"/><path d="M1.32 13.106h1.888l.377-1.913H1.792l-.472 1.913ZM5.476 11.193l-.472 1.913H6.89l.378-1.913H5.476Z" fill="#FBBC43"/><path d="m6.89 13.106-.472 1.914h3.681l.471-1.914H6.89ZM4.152 16.837h1.793l.472-1.817H4.53l-.378 1.817ZM0 18.75h1.793l.472-1.913H.377L0 18.75Z" fill="#006EB7"/><path d="M7.363 18.75h1.888l.377-1.913H7.835l-.472 1.913Z" fill="#FBBC43"/><path d="M5.098 20.568H6.89l.472-1.817H5.475l-.377 1.817ZM37.662 0H22.937l-1.322 5.644h11.988a.75.75 0 0 1 .755.766V6.6l-.094.287a.909.909 0 0 1-.85.67H21.238l-3.115 13.106h7.362l1.794-7.462h7.268c2.17 0 4.059-1.53 4.625-3.635l1.416-5.836a2.939 2.939 0 0 0-2.171-3.54C38.134 0 37.945 0 37.662 0ZM89.859 12.15h3.02l.661-2.679h-3.02l.943-3.73H88.35l-2.832 11.67c-.094.479-.189.957-.189 1.436 0 .765.189 1.148.66 1.434.473.192 1.228.383 2.455.383h2.549l.66-2.678h-1.321c-.378 0-.755 0-1.133-.096-.189-.096-.283-.287-.283-.574s.094-.574.189-.861l.755-4.305ZM76.832 9.566c-.472.096-.85.192-1.228.479-.377.287-.66.574-.849.956a4.751 4.751 0 0 0-.566 1.627l-1.133 4.879c-.094.478-.189.956-.189 1.435 0 .287 0 .574.095.86.094.192.283.383.471.48.284.19.661.286.944.286.472.096 1.039.096 1.51.096H82.4l.661-2.679h-5.38c-.377 0-.755 0-1.133-.096-.189-.095-.283-.287-.283-.574s.095-.574.189-.86l.66-2.68c.095-.286.19-.573.284-.765.094-.382.472-.67.85-.765.282 0 .66-.096.943-.096h5.38l.661-2.678h-6.701c-.567 0-1.228 0-1.7.095ZM52.008 9.758c-.472-.192-1.227-.383-2.455-.383h-4.436c-1.321 0-2.265.287-2.926.765-.66.479-1.133 1.34-1.416 2.392l-1.133 4.783c-.094.287-.094.574-.188.766 0 .191-.095.382-.095.574 0 .287 0 .574.19.86.093.192.282.383.471.479.283.191.66.287.944.287.472.096 1.038.096 1.51.096h7.551l.661-2.679h-6.418c-.378 0-.755 0-1.227-.096-.19-.095-.284-.382-.284-.574 0-.287.095-.574.095-.765l.66-2.679c.095-.287.19-.574.284-.765.094-.191.188-.383.377-.478.189-.096.378-.192.567-.192.283 0 .566-.095.85-.095h2.453c.755 0 1.227.287 1.227.765 0 .096-.094.287-.189.765h-4.247l-.66 2.679h7.267l.944-3.731c.095-.478.189-.957.189-1.435.189-.574-.094-1.052-.566-1.34ZM54.558 5.74l-.472 1.914h1.888L52.86 20.569h3.21L59.56 5.74h-5.003ZM71.547 9.758c-.472-.192-1.227-.383-2.454-.383h-4.437c-1.321 0-2.265.287-2.926.765-.66.479-1.133 1.34-1.416 2.392l-1.132 4.783c-.095.287-.095.574-.19.766 0 .191-.094.382-.094.574 0 .287 0 .574.19.86.094.192.282.383.471.479.283.191.661.287.944.287.472.096 1.038.096 1.51.096h7.551l.661-2.679h-6.418c-.378 0-.755 0-1.133-.096-.189-.095-.283-.382-.283-.574 0-.287.094-.574.094-.765l.661-2.679c.094-.287.189-.574.283-.765.095-.191.189-.383.378-.478.188-.096.377-.192.566-.192.283 0 .566-.095.85-.095h2.454c.755 0 1.227.287 1.227.765 0 .096-.095.287-.19.765h-4.246l-.661 2.679h7.268l.944-3.731c.094-.478.188-.957.188-1.435 0-.574-.188-1.052-.66-1.34ZM101.186 9.47c-.944 0-1.888.575-2.36 1.436l.283-1.435h-3.115l-2.642 11.097h3.115l1.604-6.888c.095-.287.189-.574.283-.765.095-.192.19-.383.378-.479.189-.095.377-.191.566-.191.283 0 .66-.096.944-.096h3.681l.661-2.678h-3.398ZM117.891 10.332a1.145 1.145 0 0 0-.471-.479 1.807 1.807 0 0 0-.944-.287c-.472-.095-1.038-.095-1.511-.095h-4.813c-.567 0-1.227 0-1.794.095-.85.096-1.605.574-1.982 1.435a4.746 4.746 0 0 0-.566 1.627l-1.133 4.879c-.094.478-.189.956-.189 1.435 0 .765.189 1.148.661 1.435.472.191 1.227.382 2.454.382h4.814c.566 0 1.227 0 1.793-.095.472-.096.85-.192 1.228-.479.377-.287.566-.574.755-.956.283-.479.377-1.053.566-1.627l1.132-4.879c.095-.478.189-.956.189-1.435-.094-.382-.094-.67-.189-.956Zm-3.492 3.348-.661 2.679c-.094.287-.094.574-.283.765-.095.191-.189.383-.378.478-.188.096-.377.192-.566.192-.283 0-.661.095-.944.095h-2.453c-.379 0-.756 0-1.228-.095-.189-.096-.283-.287-.283-.574s.094-.574.188-.861l.661-2.679.283-.861c.095-.191.19-.383.379-.478.188-.096.377-.192.566-.192h3.303c.377 0 .755 0 1.132.096.189.096.284.287.284.574.094.287 0 .574 0 .861ZM131.484 9.758c-.471-.192-1.226-.383-2.453-.383h-3.304c-.944 0-1.888.574-2.36 1.435l.283-1.435h-3.115l-2.642 11.097h3.115l1.604-6.888c.095-.287.189-.574.283-.765.095-.191.189-.383.378-.478.189-.096.377-.192.566-.192.283 0 .661-.095.944-.095h2.455c.377 0 .755 0 1.132.095.189.096.283.287.283.574s-.094.574-.189.861l-1.604 6.888h3.114l1.888-7.94c.094-.478.189-.957.189-1.435.188-.574-.095-1.052-.567-1.34Z" fill="#006EB7"/><path d="M148.756 8.132c-.755 0-1.51.383-1.887 1.052H135.07l-.566 2.2h12.271c.566 1.149 1.981 1.531 3.02.957 1.132-.574 1.51-2.009.943-3.061a2.294 2.294 0 0 0-1.982-1.148Zm0 3.348a1.055 1.055 0 0 1-1.038-1.052c0-.574.472-1.052 1.038-1.052.567 0 1.039.478 1.039 1.052-.095.574-.472 1.052-1.039 1.052ZM144.699 12.628c-.85 0-1.51.478-1.982 1.148h-8.872l-.568 2.2h9.345c.567 1.148 1.982 1.531 3.02.957 1.134-.574 1.511-2.009.945-3.061-.283-.766-1.039-1.244-1.888-1.244Zm0 3.348a1.055 1.055 0 0 1-1.039-1.052c0-.574.472-1.052 1.039-1.052.566 0 1.038.478 1.038 1.052 0 .574-.472 1.052-1.038 1.052ZM140.451 17.124c-.85 0-1.606.478-1.983 1.148h-5.663l-.567 2.2h6.23c.661 1.053 1.983 1.531 3.115.861 1.133-.67 1.51-2.009.85-3.157a2.438 2.438 0 0 0-1.982-1.052Zm0 3.348a1.055 1.055 0 0 1-1.039-1.052c0-.574.473-1.052 1.039-1.052s1.038.478 1.038 1.052c0 .574-.472 1.052-1.038 1.052Z" fill="#FBBC43"/></svg>
